assets/features/payment-flow/USA.svg

<svg width="30" height="20" viewBox="0 0 30 20" fill="none" xmlns="http://www.w3.org/2000/svg">
<g clip-path="url(#clip0_2522_13632)">
<path d="M0 0H30V20H0" fill="#B31942"/>
<path d="M0 2.30762H30H0ZM30 5.38454H0H30ZM0 8.46146H30H0ZM30 11.5384H0H30ZM0 14.6153H30H0ZM30 17.6922H0H30Z" fill="black"/>
<path d="M30 16.9424V18.4424H0V16.9424H30ZM30 13.8652V15.3652H0V13.8652H30ZM30 10.7881V12.2881H0V10.7881H30ZM30 7.71191V9.21191H0V7.71191H30ZM30 4.63477V6.13477H0V4.63477H30ZM30 1.55762V3.05762H0V1.55762H30Z" fill="white"/>
<path d="M0 0H12V10.7692H0" fill="#0A3161"/>
<path d="M1.00013 0.461426L1.2857 1.57467L0.538086 0.886646H1.46219L0.714572 1.57467L1.00013 0.461426Z" fill="white"/>
<path d="M1.00013 2.61523L1.2857 3.72848L0.538086 3.04045H1.46219L0.714572 3.72848L1.00013 2.61523Z" fill="white"/>
<path d="M1.00013 4.76904L1.2857 5.88228L0.538086 5.19426H1.46219L0.714572 5.88228L1.00013 4.76904Z" fill="white"/>
<path d="M1.00013 6.92285L1.2857 8.03609L0.538086 7.34807H1.46219L0.714572 8.03609L1.00013 6.92285Z" fill="white"/>
<path d="M1.00013 9.07666L1.2857 10.1899L0.538086 9.50188H1.46219L0.714572 10.1899L1.00013 9.07666Z" fill="white"/>
<path d="M2.00013 1.53857L2.2857 2.65182L1.53809 1.96379H2.46219L1.71457 2.65182L2.00013 1.53857Z" fill="white"/>
<path d="M2.00013 3.69238L2.2857 4.80562L1.53809 4.1176H2.46219L1.71457 4.80562L2.00013 3.69238Z" fill="white"/>
<path d="M2.00013 5.84619L2.2857 6.95943L1.53809 6.27141H2.46219L1.71457 6.95943L2.00013 5.84619Z" fill="white"/>
<path d="M2.00013 8L2.2857 9.11324L1.53809 8.42522H2.46219L1.71457 9.11324L2.00013 8Z" fill="white"/>
<path d="M3.00013 0.461426L3.2857 1.57467L2.53809 0.886646H3.46219L2.71457 1.57467L3.00013 0.461426Z" fill="white"/>
<path d="M3.00013 2.61523L3.2857 3.72848L2.53809 3.04045H3.46219L2.71457 3.72848L3.00013 2.61523Z" fill="white"/>
<path d="M3.00013 4.76904L3.2857 5.88228L2.53809 5.19426H3.46219L2.71457 5.88228L3.00013 4.76904Z" fill="white"/>
<path d="M3.00013 6.92285L3.2857 8.03609L2.53809 7.34807H3.46219L2.71457 8.03609L3.00013 6.92285Z" fill="white"/>
<path d="M3.00013 9.07666L3.2857 10.1899L2.53809 9.50188H3.46219L2.71457 10.1899L3.00013 9.07666Z" fill="white"/>
<path d="M4.00013 1.53857L4.2857 2.65182L3.53809 1.96379H4.46219L3.71457 2.65182L4.00013 1.53857Z" fill="white"/>
<path d="M4.00013 3.69238L4.2857 4.80562L3.53809 4.1176H4.46219L3.71457 4.80562L4.00013 3.69238Z" fill="white"/>
<path d="M4.00013 5.84619L4.2857 6.95943L3.53809 6.27141H4.46219L3.71457 6.95943L4.00013 5.84619Z" fill="white"/>
<path d="M4.00013 8L4.2857 9.11324L3.53809 8.42522H4.46219L3.71457 9.11324L4.00013 8Z" fill="white"/>
<path d="M5.00013 0.461426L5.2857 1.57467L4.53809 0.886646H5.46219L4.71457 1.57467L5.00013 0.461426Z" fill="white"/>
<path d="M5.00013 2.61523L5.2857 3.72848L4.53809 3.04045H5.46219L4.71457 3.72848L5.00013 2.61523Z" fill="white"/>
<path d="M5.00013 4.76904L5.2857 5.88228L4.53809 5.19426H5.46219L4.71457 5.88228L5.00013 4.76904Z" fill="white"/>
<path d="M5.00013 6.92285L5.2857 8.03609L4.53809 7.34807H5.46219L4.71457 8.03609L5.00013 6.92285Z" fill="white"/>
<path d="M5.00013 9.07666L5.2857 10.1899L4.53809 9.50188H5.46219L4.71457 10.1899L5.00013 9.07666Z" fill="white"/>
<path d="M6.00013 1.53857L6.2857 2.65182L5.53809 1.96379H6.46219L5.71457 2.65182L6.00013 1.53857Z" fill="white"/>
<path d="M6.00013 3.69238L6.2857 4.80562L5.53809 4.1176H6.46219L5.71457 4.80562L6.00013 3.69238Z" fill="white"/>
<path d="M6.00013 5.84619L6.2857 6.95943L5.53809 6.27141H6.46219L5.71457 6.95943L6.00013 5.84619Z" fill="white"/>
<path d="M6.00013 8L6.2857 9.11324L5.53809 8.42522H6.46219L5.71457 9.11324L6.00013 8Z" fill="white"/>
<path d="M7.00013 0.461426L7.2857 1.57467L6.53809 0.886646H7.46219L6.71457 1.57467L7.00013 0.461426Z" fill="white"/>
<path d="M7.00013 2.61523L7.2857 3.72848L6.53809 3.04045H7.46219L6.71457 3.72848L7.00013 2.61523Z" fill="white"/>
<path d="M7.00013 4.76904L7.2857 5.88228L6.53809 5.19426H7.46219L6.71457 5.88228L7.00013 4.76904Z" fill="white"/>
<path d="M7.00013 6.92285L7.2857 8.03609L6.53809 7.34807H7.46219L6.71457 8.03609L7.00013 6.92285Z" fill="white"/>
<path d="M7.00013 9.07666L7.2857 10.1899L6.53809 9.50188H7.46219L6.71457 10.1899L7.00013 9.07666Z" fill="white"/>
<path d="M8.00013 1.53857L8.2857 2.65182L7.53809 1.96379H8.46219L7.71457 2.65182L8.00013 1.53857Z" fill="white"/>
<path d="M8.00013 3.69238L8.2857 4.80562L7.53809 4.1176H8.46219L7.71457 4.80562L8.00013 3.69238Z" fill="white"/>
<path d="M8.00013 5.84619L8.2857 6.95943L7.53809 6.27141H8.46219L7.71457 6.95943L8.00013 5.84619Z" fill="white"/>
<path d="M8.00013 8L8.2857 9.11324L7.53809 8.42522H8.46219L7.71457 9.11324L8.00013 8Z" fill="white"/>
<path d="M9.00013 0.461426L9.2857 1.57467L8.53809 0.886646H9.46219L8.71457 1.57467L9.00013 0.461426Z" fill="white"/>
<path d="M9.00013 2.61523L9.2857 3.72848L8.53809 3.04045H9.46219L8.71457 3.72848L9.00013 2.61523Z" fill="white"/>
<path d="M9.00013 4.76904L9.2857 5.88228L8.53809 5.19426H9.46219L8.71457 5.88228L9.00013 4.76904Z" fill="white"/>
<path d="M9.00013 6.92285L9.2857 8.03609L8.53809 7.34807H9.46219L8.71457 8.03609L9.00013 6.92285Z" fill="white"/>
<path d="M9.00013 9.07666L9.2857 10.1899L8.53809 9.50188H9.46219L8.71457 10.1899L9.00013 9.07666Z" fill="white"/>
<path d="M10.0001 1.53857L10.2857 2.65182L9.53809 1.96379H10.4622L9.71457 2.65182L10.0001 1.53857Z" fill="white"/>
<path d="M10.0001 3.69238L10.2857 4.80562L9.53809 4.1176H10.4622L9.71457 4.80562L10.0001 3.69238Z" fill="white"/>
<path d="M10.0001 5.84619L10.2857 6.95943L9.53809 6.27141H10.4622L9.71457 6.95943L10.0001 5.84619Z" fill="white"/>
<path d="M10.0001 8L10.2857 9.11324L9.53809 8.42522H10.4622L9.71457 9.11324L10.0001 8Z" fill="white"/>
<path d="M11.0001 0.461426L11.2857 1.57467L10.5381 0.886646H11.4622L10.7146 1.57467L11.0001 0.461426Z" fill="white"/>
<path d="M11.0001 2.61523L11.2857 3.72848L10.5381 3.04045H11.4622L10.7146 3.72848L11.0001 2.61523Z" fill="white"/>
<path d="M11.0001 4.76904L11.2857 5.88228L10.5381 5.19426H11.4622L10.7146 5.88228L11.0001 4.76904Z" fill="white"/>
<path d="M11.0001 6.92285L11.2857 8.03609L10.5381 7.34807H11.4622L10.7146 8.03609L11.0001 6.92285Z" fill="white"/>
<path d="M11.0001 9.07666L11.2857 10.1899L10.5381 9.50188H11.4622L10.7146 10.1899L11.0001 9.07666Z" fill="white"/>
</g>
<rect x="0.2" y="0.2" width="29.6" height="19.6" rx="3.8" stroke="#8D8D8D" stroke-width="0.4"/>
<defs>
<clipPath id="clip0_2522_13632">
<rect width="30" height="20" rx="4" fill="white"/>
</clipPath>
</defs>
</svg>

<svg xmlns="http://www.w3.org/2000/svg" width="30" height="20" fill="none" viewBox="0 0 30 20"><g clip-path="url(#a)"><path fill="#b31942" d="M0 0h30v20H0"/><path fill="#000" d="M0 2.308h30zm30 3.077H0zM0 8.46h30zm30 3.077H0zM0 14.615h30zm30 3.077H0z"/><path fill="#fff" d="M30 16.942v1.5H0v-1.5zm0-3.077v1.5H0v-1.5zm0-3.077v1.5H0v-1.5zm0-3.076v1.5H0v-1.5zm0-3.077v1.5H0v-1.5zm0-3.077v1.5H0v-1.5z"/><path fill="#0a3161" d="M0 0h12v10.77H0"/><path fill="#fff" d="m1 .461.286 1.114L.538.887h.924l-.747.688zm0 2.154.286 1.113-.748-.688h.924l-.747.688zm0 2.154.286 1.113-.748-.688h.924l-.747.688zm0 2.154.286 1.113-.748-.688h.924l-.747.688zm0 2.154.286 1.113-.748-.688h.924l-.747.688zm1-7.538.286 1.113-.748-.688h.924l-.747.688zm0 2.153.286 1.114-.748-.688h.924l-.747.688zm0 2.154.286 1.113-.748-.688h.924l-.747.688zM2 8l.286 1.113-.748-.688h.924l-.747.688zM3 .461l.286 1.114-.748-.688h.924l-.747.688zm0 2.154.286 1.113-.748-.688h.924l-.747.688zm0 2.154.286 1.113-.748-.688h.924l-.747.688zm0 2.154.286 1.113-.748-.688h.924l-.747.688zm0 2.154.286 1.113-.748-.688h.924l-.747.688zm1-7.538.286 1.113-.748-.688h.924l-.747.688zm0 2.153.286 1.114-.748-.688h.924l-.747.688zm0 2.154.286 1.113-.748-.688h.924l-.747.688zM4 8l.286 1.113-.748-.688h.924l-.747.688zM5 .461l.286 1.114-.748-.688h.924l-.747.688zm0 2.154.286 1.113-.748-.688h.924l-.747.688zm0 2.154.286 1.113-.748-.688h.924l-.747.688zm0 2.154.286 1.113-.748-.688h.924l-.747.688zm0 2.154.286 1.113-.748-.688h.924l-.747.688zm1-7.538.286 1.113-.748-.688h.924l-.747.688zm0 2.153.286 1.114-.748-.688h.924l-.747.688zm0 2.154.286 1.113-.748-.688h.924l-.747.688zM6 8l.286 1.113-.748-.688h.924l-.747.688zM7 .461l.286 1.114-.748-.688h.924l-.747.688zm0 2.154.286 1.113-.748-.688h.924l-.747.688zm0 2.154.286 1.113-.748-.688h.924l-.747.688zm0 2.154.286 1.113-.748-.688h.924l-.747.688zm0 2.154.286 1.113-.748-.688h.924l-.747.688zm1-7.538.286 1.113-.748-.688h.924l-.747.688zm0 2.153.286 1.114-.748-.688h.924l-.747.688zm0 2.154.286 1.113-.748-.688h.924l-.747.688zM8 8l.286 1.113-.748-.688h.924l-.747.688zM9 .461l.286 1.114-.748-.688h.924l-.747.688zm0 2.154.286 1.113-.748-.688h.924l-.747.688zm0 2.154.286 1.113-.748-.688h.924l-.747.688zm0 2.154.286 1.113-.748-.688h.924l-.747.688zm0 2.154.286 1.113-.748-.688h.924l-.747.688zm1-7.538.286 1.113-.748-.688h.924l-.747.688zm0 2.153.286 1.114-.748-.688h.924l-.747.688zm0 2.154.286 1.113-.748-.688h.924l-.747.688zM10 8l.286 1.113-.748-.688h.924l-.747.688zm1-7.539.286 1.114-.748-.688h.924l-.747.688zm0 2.154.286 1.113-.748-.688h.924l-.747.688zm0 2.154.286 1.113-.748-.688h.924l-.747.688zm0 2.154.286 1.113-.748-.688h.924l-.747.688zm0 2.154.286 1.113-.748-.688h.924l-.747.688z"/></g><rect width="29.6" height="19.6" x=".2" y=".2" stroke="#8d8d8d" stroke-width=".4" rx="3.8"/><defs><clipPath id="a"><rect width="30" height="20" fill="#fff" rx="4"/></clipPath></defs></svg>
